!! 00000] TT[WS
!!!OTL: Sibao langong
!!!ARE: Asia, China,ÿShanxi linxian
!! Ethnic Group: Han
!! WI, 66 (2)
!!!SCT: J0078
!!!YEM: Copyright 1995, estate of Helmut Schaffrath.
**kern
*ICvox
*Ivox
*M4/4
*k[]
*C:
{4g
8g
8cc
8a
8g
8e
8d
=1
4.dd
8gg
8ee
8dd
8cc
8dd
=2
8dd
4gg
8dd
8.ee
16dd
8cc
8a
=3
8a
8g
8f
8d
2g}
=4
{8a
8g
4a
8.dd
16gg
8dd
8cc
=5
8a
8g
8a
8cc
4.f
8d
=6
8cc
4dd
8gg
8.a
16cc
8g
8e
=7
1d}
==
!!!AGN: Xiaodiao. Qingge
!!!ONB: ESAC (Essen Associative Code) Database: CHINA
!!!AMT: simple quadruple
!!!AIN: vox
!!!EED: Helmut Schaffrath
!!!EEV: 1.0
*-
